X:464
%%topmargin 3cm
T:What's A' the Steer
C:
O:Scotland
B:Keith Norman MacDonald : "The Skye collection of the best reels & strathspeys extant" : 1887
Z:Ralph Palmer
N:Country Dance
R:Strathspey
M:C
L:1/8
K:G
G>A | B2 B>A B2 B<d | B2 B>A B2 B>c | d>e dB | d>e d<B A2 :|
B>A | G>A G<E G2 B>A | G>A G<E G2 G>A | B>d e>f g2 f>e | dA G2 |]
